src/icons/search-connectors.svg

<?xml version="1.0" encoding="UTF-8"?>
<svg width="38px" height="38px" viewBox="0 0 38 38" version="1.1" xmlns="http://www.w3.org/2000/svg" xmlns:xlink="http://www.w3.org/1999/xlink">
    <!-- Generator: Sketch 59 (86127) - https://sketch.com -->
    <title>HDL/Icon/Standard/Search/connectors</title>
    <desc>Created with Sketch.</desc>
    <g id="Colors" stroke="none" stroke-width="1" fill="none" fill-rule="evenodd">
        <g id="Search-Icons" transform="translate(-100.000000, -524.000000)">
            <g id="HDL/Icon/Standard/Search/connectors" transform="translate(101.000000, 525.000000)">
                <g id="Connectors">
                    <circle id="Oval" stroke="#D4ECFC" fill="#F7FCFF" cx="18" cy="18" r="18"></circle>
                    <path d="M26.1,16.2 L24.021,16.2 C23.895,15.786 23.724,15.399 23.517,15.03 L25.047,13.5 C25.398,13.149 25.398,12.582 25.047,12.231 L23.778,10.962 C23.427,10.611 22.86,10.611 22.509,10.962 L20.979,12.492 C20.61,12.294 20.223,12.123 19.809,11.997 L19.809,9.9 C19.809,9.405 19.404,9 18.909,9 L17.1,9 C16.605,9 16.2,9.405 16.2,9.9 L16.2,11.997 C15.768,12.123 15.354,12.303 14.967,12.519 L13.5,11.052 C13.167,10.719 12.618,10.719 12.276,11.052 L11.052,12.276 C10.719,12.618 10.719,13.167 11.052,13.5 L12.51,14.958 C12.294,15.354 12.114,15.759 11.979,16.2 L9.9,16.2 C9.405,16.2 9,16.605 9,17.1 L9,18.9 C9,19.395 9.405,19.8 9.9,19.8 L11.979,19.8 C12.105,20.214 12.276,20.601 12.483,20.97 L10.953,22.5 C10.602,22.851 10.602,23.418 10.953,23.769 L12.222,25.038 C12.573,25.389 13.14,25.389 13.491,25.038 L15.021,23.508 C15.39,23.706 15.777,23.877 16.191,24.003 L16.191,26.1 C16.191,26.595 16.596,27 17.091,27 L18.891,27 C19.386,27 19.791,26.595 19.791,26.1 L19.791,24.003 C20.223,23.877 20.637,23.688 21.024,23.472 L22.5,24.948 C22.833,25.281 23.382,25.281 23.724,24.948 L24.948,23.724 C25.281,23.391 25.281,22.842 24.948,22.5 L23.49,21.042 C23.706,20.655 23.895,20.241 24.03,19.8 L26.1,19.8 C26.595,19.8 27,19.395 27,18.9 L27,17.1 C27,16.605 26.595,16.2 26.1,16.2 Z M18,21.6 C16.011,21.6 14.4,19.989 14.4,18 C14.4,16.011 16.011,14.4 18,14.4 C19.989,14.4 21.6,16.011 21.6,18 C21.6,19.989 19.989,21.6 18,21.6 Z" id="Shape" fill="#25A6F7" fill-rule="nonzero"></path>
                </g>
            </g>
        </g>
    </g>
</svg>

<?xml version="1.0" encoding="utf-8"?>
<!-- Generator: Adobe Illustrator 20.1.0, SVG Export Plug-In . SVG Version: 6.00 Build 0)  -->
<svg version="1.1" id="Layer_1" xmlns="http://www.w3.org/2000/svg" xmlns:xlink="http://www.w3.org/1999/xlink" x="0px" y="0px"
	 viewBox="0 0 38 38" style="enable-background:new 0 0 38 38;" xml:space="preserve">
<style type="text/css">
	.st0{fill:#F7FCFF;stroke:#D4ECFC;}
	.st1{fill:#25A6F7;}
</style>
<title>HDL/Icon/Standard/Search/connectors</title>
<desc>Created with Sketch.</desc>
<g id="Colors">
	<g id="Search-Icons" transform="translate(-100.000000, -524.000000)">
		<g id="HDL_x2F_Icon_x2F_Standard_x2F_Search_x2F_connectors" transform="translate(101.000000, 525.000000)">
			<g id="Connectors">
				<circle id="Oval" class="st0" cx="18" cy="18" r="18"/>
				<path id="Shape" class="st1" d="M26.1,16.2H24c-0.1-0.4-0.3-0.8-0.5-1.2l1.5-1.5c0.4-0.4,0.4-0.9,0-1.3L23.8,11
					c-0.4-0.4-0.9-0.4-1.3,0L21,12.5c-0.4-0.2-0.8-0.4-1.2-0.5V9.9c0-0.5-0.4-0.9-0.9-0.9h-1.8c-0.5,0-0.9,0.4-0.9,0.9V12
					c-0.4,0.1-0.8,0.3-1.2,0.5l-1.5-1.5c-0.3-0.3-0.9-0.3-1.2,0l-1.2,1.2c-0.3,0.3-0.3,0.9,0,1.2l1.5,1.5c-0.2,0.4-0.4,0.8-0.5,1.2
					H9.9c-0.5,0-0.9,0.4-0.9,0.9v1.8c0,0.5,0.4,0.9,0.9,0.9H12c0.1,0.4,0.3,0.8,0.5,1.2L11,22.5c-0.4,0.4-0.4,0.9,0,1.3l1.3,1.3
					c0.4,0.4,0.9,0.4,1.3,0l1.5-1.5c0.4,0.2,0.8,0.4,1.2,0.5v2.1c0,0.5,0.4,0.9,0.9,0.9h1.8c0.5,0,0.9-0.4,0.9-0.9V24
					c0.4-0.1,0.8-0.3,1.2-0.5l1.5,1.5c0.3,0.3,0.9,0.3,1.2,0l1.2-1.2c0.3-0.3,0.3-0.9,0-1.2L23.5,21c0.2-0.4,0.4-0.8,0.5-1.2h2.1
					c0.5,0,0.9-0.4,0.9-0.9v-1.8C27,16.6,26.6,16.2,26.1,16.2z M18,21.6c-2,0-3.6-1.6-3.6-3.6s1.6-3.6,3.6-3.6s3.6,1.6,3.6,3.6
					S20,21.6,18,21.6z"/>
			</g>
		</g>
	</g>
</g>
</svg>
